svg/umbrella.svg

<svg xmlns="http://www.w3.org/2000/svg" viewBox="0 0 64 64" enable-background="new 0 0 64 64"><style type="text/css">.st0{fill:#343434;}</style><title>umbrella</title><desc>Created with Sketch.</desc><path class="st0" d="M44 54c-1.1 0-2 .9-2 2 0 2.2-1.8 4-4 4s-4-1.8-4-4v-24h29.9c-1.5-15.6-14.2-28-29.9-28.9v-1.1c0-1.1-.9-2-2-2s-2 .9-2 2v1.1c-14.4.9-26.2 11.2-29.2 24.9l-.1.6c-.2 1.1-.4 2.3-.5 3.4h29.8v24c0 4.4 3.6 8 8 8s8-3.6 8-8c0-1.1-.9-2-2-2zm-12-47c13 0 24 8.9 27.1 21h-54.2c3.1-12.1 14.1-21 27.1-21z"/></svg>

<svg xmlns="http://www.w3.org/2000/svg" viewBox="0 0 64 64"><path d="M44 54c-1.1 0-2 .9-2 2 0 2.2-1.8 4-4 4s-4-1.8-4-4V32h29.9C62.4 16.4 49.7 4 34 3.1V2c0-1.1-.9-2-2-2s-2 .9-2 2v1.1C15.6 4 3.8 14.3.8 28l-.1.6C.5 29.7.3 30.9.2 32H30v24c0 4.4 3.6 8 8 8s8-3.6 8-8c0-1.1-.9-2-2-2zM32 7c13 0 24 8.9 27.1 21H4.9C8 15.9 19 7 32 7z" fill="#343434"/></svg>
